public/logo.svg

<svg width="462" height="249" viewBox="0 0 462 249" fill="none" xmlns="http://www.w3.org/2000/svg">
<path d="M243.406 248.313L224.417 210.339L243.406 191.349L262.39 210.339L243.406 248.313Z" fill="#47795B"/>
<path d="M314.5 122.078V103.927C312.338 103.339 310.078 103.026 307.734 103.026C293.479 103.026 281.917 114.583 281.917 128.844C281.917 143.099 293.479 154.661 307.734 154.661C321.995 154.661 333.552 143.099 333.552 128.844C333.552 126.5 333.239 124.24 332.651 122.078H314.5Z" fill="#47795B"/>
<path d="M170.214 122.078V103.927C172.37 103.339 174.636 103.026 176.979 103.026C191.24 103.026 202.797 114.583 202.797 128.844C202.797 143.099 191.24 154.661 176.979 154.661C162.719 154.661 151.162 143.099 151.162 128.844C151.162 126.5 151.474 124.24 152.057 122.078H170.214Z" fill="#47795B"/>
<path d="M323.073 194.635C289.974 194.635 263.052 167.708 263.052 134.615C263.052 101.516 289.974 74.5938 323.073 74.5938C356.167 74.5938 383.094 101.516 383.094 134.615C383.094 167.708 356.167 194.635 323.073 194.635ZM461.427 21.2084C415.307 51.6094 323.073 54.6771 323.073 54.6771C278.995 54.6771 243.135 90.5365 243.135 134.615C243.135 178.688 278.995 214.547 323.073 214.547C367.146 214.547 403.005 178.688 403.005 134.615C403.005 113.448 394.724 94.1928 381.245 79.8803C431.953 63.4792 461.427 21.2084 461.427 21.2084Z" fill="#47795B"/>
<path d="M138.354 215.844C93.5677 215.844 57.125 179.401 57.125 134.615C57.125 89.8229 93.5677 53.3854 138.354 53.3854C183.146 53.3854 219.583 89.8229 219.583 134.615C219.583 179.401 183.146 215.844 138.354 215.844ZM138.354 33.4688C138.354 33.4688 46.1198 30.3958 0 0C0 0 27.1354 38.9115 74.1146 56.5469C51.5938 75.1146 37.2135 103.214 37.2135 134.615C37.2135 190.385 82.5833 235.76 138.354 235.76C194.125 235.76 239.5 190.385 239.5 134.615C239.5 78.8438 194.125 33.4688 138.354 33.4688Z" fill="#47795B"/>
</svg>

<svg width="462" height="249" viewBox="0 0 462 249" fill="none" xmlns="http://www.w3.org/2000/svg">
    <path
        d="m243.406 248.313-18.989-37.974 18.989-18.99 18.984 18.99zM314.5 122.078v-18.151a25.7 25.7 0 0 0-6.766-.901c-14.255 0-25.817 11.557-25.817 25.818 0 14.255 11.562 25.817 25.817 25.817 14.261 0 25.818-11.562 25.818-25.817a25.7 25.7 0 0 0-.901-6.766zm-144.286 0v-18.151a25.7 25.7 0 0 1 6.765-.901c14.261 0 25.818 11.557 25.818 25.818 0 14.255-11.557 25.817-25.818 25.817-14.26 0-25.817-11.562-25.817-25.817 0-2.344.312-4.604.895-6.766z"
        fill="#fff" />
    <path
        d="M323.073 194.635c-33.099 0-60.021-26.927-60.021-60.02 0-33.099 26.922-60.021 60.021-60.021 33.094 0 60.021 26.922 60.021 60.021 0 33.093-26.927 60.02-60.021 60.02M461.427 21.208c-46.12 30.401-138.354 33.47-138.354 33.47-44.078 0-79.938 35.859-79.938 79.937 0 44.073 35.86 79.932 79.938 79.932 44.073 0 79.932-35.859 79.932-79.932 0-21.167-8.281-40.422-21.76-54.735 50.708-16.4 80.182-58.672 80.182-58.672M138.354 215.844c-44.786 0-81.229-36.443-81.229-81.229 0-44.792 36.443-81.23 81.229-81.23 44.792 0 81.229 36.438 81.229 81.23 0 44.786-36.437 81.229-81.229 81.229m0-182.375S46.12 30.396 0 0c0 0 27.135 38.912 74.115 56.547-22.521 18.568-36.901 46.667-36.901 78.068 0 55.77 45.37 101.145 101.14 101.145S239.5 190.385 239.5 134.615c0-55.771-45.375-101.146-101.146-101.146"
        fill="#fff" />
</svg>
